svg/bubbles.svg

<?xml version="1.0" encoding="UTF-8" standalone="no"?>
<!-- Generator: Adobe Illustrator 25.2.3, SVG Export Plug-In . SVG Version: 6.00 Build 0)  -->

<svg
   version="1.1"
   id="Layer_7"
   x="0px"
   y="0px"
   viewBox="0 0 128 128"
   style="enable-background:new 0 0 128 128;"
   xml:space="preserve"
   sodipodi:docname="emoji_u1fae7.svg"
   inkscape:version="1.2.2 (732a01da63, 2022-12-09)"
   xmlns:inkscape="http://www.inkscape.org/namespaces/inkscape"
   xmlns:sodipodi="http://sodipodi.sourceforge.net/DTD/sodipodi-0.dtd"
   xmlns="http://www.w3.org/2000/svg"
   xmlns:svg="http://www.w3.org/2000/svg"><defs
   id="defs53" /><sodipodi:namedview
   id="namedview51"
   pagecolor="#ffffff"
   bordercolor="#000000"
   borderopacity="0.25"
   inkscape:showpageshadow="2"
   inkscape:pageopacity="0.0"
   inkscape:pagecheckerboard="0"
   inkscape:deskcolor="#d1d1d1"
   showgrid="false"
   inkscape:zoom="2.9996795"
   inkscape:cx="62.006623"
   inkscape:cy="73.674536"
   inkscape:window-width="1366"
   inkscape:window-height="697"
   inkscape:window-x="-8"
   inkscape:window-y="-8"
   inkscape:window-maximized="1"
   inkscape:current-layer="Layer_7" />
<g
   id="g48">
	<g
   id="g40">
		<g
   id="g10">
			<circle
   style="opacity:0.42;fill:#4DD0E1;"
   cx="106.07"
   cy="57.86"
   r="16.87"
   id="circle2" />
			<path
   style="fill:#effcfc;fill-opacity:0.82745099"
   d="M104.21,46.15c0.71,1.48-1.55,3.36-2.43,4.53c-2.29,3.05-1.1,5.42-2.81,8.2     c-1.29,2.09-5.38,3.53-6.15-1.58c-0.48-3.2,1.52-6.82,2.88-8.3C100.21,44.1,103.62,44.93,104.21,46.15z"
   id="path4" />
			<g
   id="g8">
				
			</g>
		</g>
		<g
   id="g24">
			<g
   id="g20">
				<circle
   style="opacity:0.42;fill:#4DD0E1;"
   cx="89.27"
   cy="99.87"
   r="21.65"
   id="circle12" />
				<g
   id="g16">
					
				</g>
				<path
   style="opacity:0.7;fill:#FFFFFF;"
   d="M84.02,83.31c4.4-0.3,5.92,2.84,4.83,5.33c-1.4,3.2-4.66,2.06-7.53,5.17      c-1.98,2.15-6.21,4.48-6.8-0.27C74,89.34,78.65,83.68,84.02,83.31z"
   id="path18" />
			</g>
			
		</g>
		<g
   id="g38">
			<g
   id="g36">
				<circle
   style="opacity:0.42;fill:#4DD0E1;"
   cx="42.95"
   cy="43.86"
   r="38.37"
   id="circle26" />
				<path
   style="opacity:0.7;fill:#FFFFFF;"
   d="M38.56,14.73c4.39,1.51,5.55,5.43,4.2,8.78c-1.24,3.08-5.9,4.47-8.82,6.06      c-4.45,2.41-7.68,5.54-10.09,9.99c-2.33,4.3-8.61,6.04-9.47-0.21c-0.67-4.89,2.37-11.85,5.22-15.42      c2.52-3.15,5.98-5.96,9.6-7.76C31.75,14.91,35.79,13.78,38.56,14.73z"
   id="path28" />
				
				<g
   id="g34">
					
				</g>
			</g>
		</g>
	</g>
	
	
	
</g>
</svg>

<?xml version="1.0" encoding="UTF-8" standalone="no"?>
<!DOCTYPE svg PUBLIC "-//W3C//DTD SVG 1.1//EN" "http://www.w3.org/Graphics/SVG/1.1/DTD/svg11.dtd">
<svg width="100%" height="100%" viewBox="0 0 128 128" version="1.1" xmlns="http://www.w3.org/2000/svg" xmlns:xlink="http://www.w3.org/1999/xlink" xml:space="preserve" xmlns:serif="http://www.serif.com/" style="fill-rule:evenodd;clip-rule:evenodd;stroke-linejoin:round;stroke-miterlimit:2;">
    <g id="g48">
        <g id="g40">
            <g id="g10">
                <circle id="circle2" cx="106.07" cy="57.86" r="16.87" style="fill:rgb(64,192,231);fill-opacity:0.42;"/>
                <path id="path4" d="M104.21,46.15C104.92,47.63 102.66,49.51 101.78,50.68C99.49,53.73 100.68,56.1 98.97,58.88C97.68,60.97 93.59,62.41 92.82,57.3C92.34,54.1 94.34,50.48 95.7,49C100.21,44.1 103.62,44.93 104.21,46.15Z" style="fill:rgb(239,252,252);fill-opacity:0.83;fill-rule:nonzero;"/>
            </g>
            <g id="g24">
                <g id="g20">
                    <circle id="circle12" cx="89.27" cy="99.87" r="21.65" style="fill:rgb(64,192,231);fill-opacity:0.42;"/>
                    <path id="path18" d="M84.02,83.31C88.42,83.01 89.94,86.15 88.85,88.64C87.45,91.84 84.19,90.7 81.32,93.81C79.34,95.96 75.11,98.29 74.52,93.54C74,89.34 78.65,83.68 84.02,83.31Z" style="fill:white;fill-opacity:0.7;fill-rule:nonzero;"/>
                </g>
            </g>
            <g id="g38">
                <g id="g36">
                    <circle id="circle26" cx="42.95" cy="43.86" r="38.37" style="fill:rgb(64,192,231);fill-opacity:0.42;"/>
                    <path id="path28" d="M38.56,14.73C42.95,16.24 44.11,20.16 42.76,23.51C41.52,26.59 36.86,27.98 33.94,29.57C29.49,31.98 26.26,35.11 23.85,39.56C21.52,43.86 15.24,45.6 14.38,39.35C13.71,34.46 16.75,27.5 19.6,23.93C22.12,20.78 25.58,17.97 29.2,16.17C31.75,14.91 35.79,13.78 38.56,14.73Z" style="fill:white;fill-opacity:0.7;fill-rule:nonzero;"/>
                </g>
            </g>
        </g>
    </g>
</svg>
